X: 5
T: Merrily Kissed The Quaker
R: slide
M: 12/8
L: 1/8
K: Dmaj
|:A|def AFA|BGB ~A3|def A2g|f2a gfe||def AFA|BGB ~A3|fed faf|~e3 d2:||:A|def f2a|f2a fed|def faf|efe ecA||def f2a|f2a fed|fed faf|~e3 d2:||:A|def A2f|g2f ~e3|def AFA|BAB d2A||def A2f|agf ~e3|def ecA|1 ~G3 d2:|2 B3 d2|||:A|def a2f|a2f a2f|def a2g|~f3 a2f||def a2f|b2f a2f|def ecA|~B3 d2A||def a2f|b2f a2f|def a2g|~f3 a3||b2g efg|a2f d2A|def ecA|~B3 d2|


Tune 70	Setting 12536

